docs/img/quotes.svg

<svg width="17" height="12" viewBox="0 0 17 12" fill="none" xmlns="http://www.w3.org/2000/svg">
<path d="M13.7881 0.549805L14.8135 0.0712891L15.6338 0.481445L16.1465 0.652344L16.3174 0.823242L16.3516 1.0625L16.249 1.5752L15.7363 2.32715L14.6426 3.52344L14.3008 4.51465L14.8135 5.12988L15.3262 5.84766L15.3945 6.05273L15.4971 6.70215L15.7021 8.00098L15.3262 8.82129L14.5059 10.0859L13.1387 11.3848L11.9766 11.7266L11.1221 11.4873L10.3018 10.7354L9.00293 8.88965L8.79785 8.24023L8.83203 7.9668L9.51562 6.90723L10.2676 4.99316L11.3271 3.4209L12.5234 1.91699L13.7881 0.549805ZM7.32812 0.481445L8.0459 0.857422L7.73828 1.78027L6.2002 3.72852L5.99512 4.51465L6.57617 5.30078L7.08887 6.01855L7.19141 6.83887L7.3623 8.03516V8.10352L7.32812 8.27441L6.16602 10.0859L4.79883 11.3848L3.63672 11.7266L2.81641 11.4873L1.99609 10.7354L0.663086 8.88965L0.458008 8.24023L0.492188 8.03516L0.560547 7.89844L1.17578 6.94141L1.96191 4.9248L2.9873 3.4209L5.20898 0.789062L6.06348 0.173828L6.43945 0.0712891L7.32812 0.481445Z" fill="#E3B7B5"/>
</svg>

<svg width="17" height="12" fill="none" xmlns="http://www.w3.org/2000/svg"><path d="M13.788.55l1.025-.48.82.41.514.171.17.171.035.24-.103.512-.513.752-1.093 1.196-.342.992.512.615.513.718.069.205.102.65L15.702 8l-.376.82-.82 1.265-1.367 1.299-1.162.342-.855-.24-.82-.752-1.3-1.845-.204-.65.034-.273.684-1.06.752-1.914 1.06-1.572 1.195-1.504L13.788.55zM7.328.48l.718.376-.308.923L6.2 3.73l-.205.786.581.786.513.718.102.82.171 1.196v.069l-.034.17-1.162 1.812-1.367 1.299-1.162.342-.82-.24-.82-.752L.662 8.89l-.205-.65.034-.205.069-.137.615-.957.786-2.016L2.987 3.42 5.21.789l.854-.615L6.44.07l.89.41z" fill="#E3B7B5"/></svg>
